src/assets/icons/filters/categories/collecting_stroke.svg

<svg width="48" height="60" viewBox="0 0 48 60" fill="none" xmlns="http://www.w3.org/2000/svg">
<path fill-rule="evenodd" clip-rule="evenodd" d="M23.9763 20.2916C24.9545 20.2926 25.8924 20.6817 26.5839 21.3736C27.2754 22.0655 27.6641 23.0036 27.6646 23.9818C27.6636 24.9597 27.2747 25.8973 26.5832 26.5888C25.8918 27.2803 24.9542 27.6692 23.9763 27.6702C22.998 27.6697 22.06 27.281 21.3681 26.5894C20.6762 25.8979 20.287 24.96 20.286 23.9818C20.2865 23.0032 20.6755 22.0649 21.3674 21.373C22.0594 20.681 22.9977 20.2921 23.9763 20.2916ZM47.9968 18.4437C47.9987 19.315 47.587 20.1162 46.8707 20.6423C46.6333 20.8125 46.4401 21.0371 46.3071 21.2972C46.1742 21.5573 46.1054 21.8455 46.1065 22.1376C46.1065 22.732 46.3834 23.2766 46.867 23.631C47.217 23.88 47.5025 24.209 47.6996 24.5907C47.8966 24.9723 47.9996 25.3955 48 25.825C48.0004 26.2545 47.8981 26.6779 47.7016 27.0599C47.5052 27.4419 47.2203 27.7714 46.8707 28.0209C46.6333 28.1911 46.4401 28.4157 46.3071 28.6758C46.1742 28.9359 46.1054 29.2241 46.1065 29.5162C46.1065 30.1106 46.3834 30.6552 46.867 31.0096C47.217 31.2586 47.5025 31.5876 47.6996 31.9692C47.8966 32.3509 47.9996 32.7741 48 33.2036C48.0004 33.6331 47.8981 34.0565 47.7016 34.4385C47.5052 34.8205 47.2203 35.1499 46.8707 35.3995C46.6333 35.5697 46.4401 35.7943 46.3071 36.0544C46.1742 36.3145 46.1054 36.6027 46.1065 36.8948C46.1065 37.4892 46.3834 38.0338 46.867 38.3901C47.2167 38.6391 47.5018 38.968 47.6986 39.3495C47.8955 39.7309 47.9983 40.1539 47.9987 40.5831C47.9991 41.0124 47.8969 41.4355 47.7007 41.8173C47.5045 42.1991 47.22 42.5285 46.8707 42.7781C46.6333 42.9483 46.4401 43.1728 46.3071 43.433C46.1742 43.6931 46.1054 43.9812 46.1065 44.2734C46.1065 44.8696 46.3834 45.4124 46.867 45.7687C47.2167 46.0177 47.5018 46.3466 47.6986 46.7281C47.8955 47.1095 47.9983 47.5325 47.9987 47.9617C47.9991 48.391 47.8969 48.8141 47.7007 49.1959C47.5045 49.5777 47.22 49.9071 46.8707 50.1567C46.5557 50.3856 46.3211 50.7082 46.2006 51.0785C46.08 51.4487 46.0796 51.8476 46.1994 52.2181C46.3192 52.5886 46.5531 52.9118 46.8676 53.1413C47.1822 53.3709 47.5613 53.4951 47.9507 53.4961V59.0305H40.5739C40.5732 58.6418 40.4497 58.2632 40.2212 57.9488C39.9927 57.6343 39.6707 57.4 39.3012 57.2793C38.9316 57.1586 38.5334 57.1576 38.1633 57.2765C37.7932 57.3954 37.4701 57.6281 37.24 57.9414C36.9898 58.291 36.6599 58.5759 36.2776 58.7725C35.8954 58.9691 35.4717 59.0718 35.0418 59.0719C34.612 59.0721 34.1882 58.9698 33.8058 58.7735C33.4234 58.5772 33.0932 58.2926 32.8427 57.9432C32.1357 56.9796 30.5666 56.9815 29.8614 57.9432C28.8092 59.3794 26.5164 59.3776 25.466 57.9432C24.759 56.9796 23.1898 56.9815 22.4847 57.9432C21.4324 59.3794 19.1397 59.3776 18.0893 57.9432C17.3822 56.9796 15.8131 56.9815 15.1079 57.9432C14.0557 59.3794 11.7629 59.3776 10.7107 57.9432C10.4807 57.63 10.1577 57.3974 9.78777 57.2785C9.41784 57.1595 9.01981 57.1604 8.65038 57.2809C8.28095 57.4014 7.95896 57.6353 7.73028 57.9495C7.50159 58.2637 7.37787 58.642 7.37674 59.0305H0V53.4961C0.385582 53.4954 0.761253 53.374 1.07429 53.1488C1.38733 52.9237 1.62201 52.6062 1.74541 52.2409C1.86881 51.8756 1.87472 51.4808 1.76232 51.112C1.64992 50.7431 1.42485 50.4188 1.11869 50.1844C0.777737 49.9234 0.502052 49.5868 0.313366 49.2011C0.12468 48.8154 0.0281501 48.3911 0.0313829 47.9617C0.0313829 47.0812 0.426432 46.2708 1.11685 45.741C1.34347 45.5694 1.52713 45.3475 1.65336 45.0928C1.77958 44.8381 1.8449 44.5576 1.84418 44.2734C1.84526 43.9893 1.78028 43.7088 1.65437 43.4541C1.52847 43.1994 1.34508 42.9774 1.11869 42.8058C0.777737 42.5448 0.502052 42.2082 0.313366 41.8225C0.12468 41.4368 0.0281501 41.0125 0.0313829 40.5832C0.0313829 39.7026 0.426432 38.8922 1.11685 38.3624C1.34347 38.1908 1.52713 37.9689 1.65336 37.7142C1.77958 37.4596 1.8449 37.179 1.84418 36.8948C1.84526 36.6107 1.78028 36.3302 1.65437 36.0755C1.52847 35.8208 1.34508 35.5989 1.11869 35.4272C0.777737 35.1662 0.502052 34.8296 0.313366 34.4439C0.12468 34.0582 0.0281501 33.6339 0.0313829 33.2046C0.0313829 32.3222 0.426432 31.5136 1.11685 30.9838C1.34347 30.8122 1.52713 30.5903 1.65336 30.3357C1.77958 30.081 1.8449 29.8004 1.84418 29.5162C1.84526 29.2321 1.78028 28.9516 1.65437 28.6969C1.52847 28.4422 1.34508 28.2203 1.11869 28.0486C0.777737 27.7876 0.502052 27.451 0.313366 27.0653C0.12468 26.6796 0.0281501 26.2553 0.0313829 25.826C0.0313829 24.9436 0.426432 24.135 1.11685 23.6052C1.34431 23.4334 1.52863 23.2111 1.6552 22.9557C1.78177 22.7003 1.84711 22.4189 1.84603 22.1339C1.84682 21.8501 1.7817 21.57 1.65581 21.3157C1.52991 21.0613 1.34668 20.8396 1.12054 20.6682C0.779584 20.4072 0.503899 20.0706 0.315213 19.6849C0.126527 19.2992 0.0299951 18.8749 0.0332279 18.4455C0.0297798 18.0166 0.126037 17.5927 0.314408 17.2073C0.502779 16.8219 0.778113 16.4856 1.11869 16.2248C1.34557 16.053 1.52938 15.8308 1.65561 15.5758C1.78185 15.3208 1.84704 15.0399 1.84603 14.7553C1.84682 14.4715 1.7817 14.1914 1.65581 13.9371C1.52991 13.6827 1.34668 13.4611 1.12054 13.2896C0.779584 13.0286 0.503899 12.692 0.315213 12.3063C0.126527 11.9206 0.0299951 11.4963 0.0332279 11.067C0.0297798 10.638 0.126037 10.2141 0.314408 9.82873C0.502779 9.44334 0.778113 9.10698 1.11869 8.84618C1.42485 8.61178 1.64992 8.2874 1.76232 7.91856C1.87472 7.54973 1.86881 7.15495 1.74541 6.78965C1.62201 6.42435 1.38733 6.10685 1.07429 5.88172C0.761253 5.6566 0.385582 5.53514 0 5.5344V0H7.37674C7.37749 0.388735 7.50093 0.767315 7.72947 1.08177C7.95801 1.39623 8.27999 1.63052 8.64951 1.75123C9.01902 1.87195 9.41722 1.87294 9.78733 1.75405C10.1574 1.63517 10.4806 1.40248 10.7107 1.08916C11.7186 -0.287981 14.1 -0.291673 15.1098 1.09285C15.8113 2.0454 17.3804 2.0491 18.0893 1.08916C19.0953 -0.287981 21.4767 -0.291673 22.4865 1.09285C23.188 2.0454 24.759 2.0491 25.466 1.08916C26.4721 -0.287981 28.8535 -0.291673 29.8633 1.09285C30.5647 2.0454 32.1357 2.0491 32.8427 1.08916C33.8488 -0.287981 36.2302 -0.291673 37.2418 1.09285C37.4724 1.40565 37.7957 1.63773 38.1658 1.75604C38.536 1.87434 38.934 1.87284 39.3032 1.75175C39.6724 1.63065 39.994 1.39614 40.2222 1.08161C40.4503 0.767076 40.5734 0.38857 40.5739 0H47.9507V5.5344C47.561 5.53472 47.1813 5.65836 46.8662 5.88761C46.551 6.11687 46.3165 6.43998 46.1963 6.81066C46.076 7.18135 46.0761 7.58059 46.1966 7.95121C46.3171 8.32182 46.5518 8.6448 46.867 8.87387C47.217 9.12284 47.5025 9.45185 47.6996 9.83349C47.8966 10.2151 47.9996 10.6383 48 11.0679C48.0004 11.4974 47.8981 11.9208 47.7016 12.3027C47.5052 12.6847 47.2203 13.0142 46.8707 13.2637C46.6333 13.4339 46.4401 13.6585 46.3071 13.9186C46.1742 14.1787 46.1054 14.4669 46.1065 14.759C46.1065 15.3534 46.3834 15.898 46.867 16.2525C47.5833 16.773 47.995 17.5724 47.9968 18.4437V18.4437ZM38.7297 53.4961C40.3579 53.4961 41.8089 54.2161 42.8242 55.3422H43.8303C42.9192 54.3285 42.416 53.0131 42.4181 51.6501C42.4181 50.2841 42.9313 48.9678 43.8285 47.9617C42.9225 46.9465 42.4206 45.6341 42.4181 44.2734C42.4181 42.9036 42.9313 41.5892 43.8285 40.5832C42.9225 39.5679 42.4206 38.2555 42.4181 36.8948C42.4181 35.525 42.9313 34.2107 43.8285 33.2046C42.9225 32.1894 42.4206 30.8769 42.4181 29.5162C42.4181 28.1464 42.9313 26.8321 43.8285 25.8241C42.9225 24.8089 42.4206 23.4965 42.4181 22.1358C42.4181 20.7679 42.9313 19.4516 43.8285 18.4474C42.922 17.4317 42.4202 16.1185 42.4181 14.7572C42.4181 13.3893 42.9313 12.073 43.8285 11.0688C42.922 10.0531 42.4202 8.73993 42.4181 7.37859C42.4181 5.96268 42.9535 4.66861 43.8303 3.69022H42.8242C42.3095 4.26784 41.6788 4.73058 40.9734 5.04832C40.2679 5.36607 39.5034 5.53169 38.7297 5.5344C37.3687 5.53209 36.0559 5.02947 35.0414 4.12219C33.0255 5.92022 29.675 5.91653 27.6646 4.12219C25.6488 5.92022 22.2982 5.91653 20.286 4.12219C18.2702 5.92022 14.9196 5.91653 12.9093 4.12219C11.8944 5.02887 10.5819 5.5314 9.22093 5.5344C7.59273 5.5344 6.14175 4.81445 5.12643 3.68837H4.09265C5.01265 4.69521 5.52569 6.00799 5.53217 7.37183C5.53866 8.73567 5.03811 10.0533 4.12773 11.0688C5.02859 12.0712 5.53256 13.3727 5.53256 14.7572C5.53256 16.1417 5.02859 17.4413 4.12773 18.4474C5.02859 19.4498 5.53256 20.7512 5.53256 22.1358C5.53256 23.5203 5.02859 24.8199 4.12773 25.826C5.02859 26.8302 5.53256 28.1298 5.53256 29.5162C5.53662 30.8771 5.03611 32.1912 4.12773 33.2046C5.02859 34.2088 5.53256 35.5084 5.53256 36.8948C5.53256 38.2793 5.02859 39.5789 4.12773 40.5832C5.02859 41.5874 5.53256 42.887 5.53256 44.2734C5.53256 45.6579 5.02859 46.9575 4.12773 47.9617C5.0394 48.9762 5.54098 50.2936 5.53484 51.6575C5.5287 53.0213 5.01527 54.3341 4.0945 55.3403H5.12828C5.64246 54.7625 6.27273 54.2996 6.97794 53.9818C7.68314 53.664 8.44744 53.4985 9.22093 53.4961C10.5888 53.4961 11.9051 54.0093 12.9093 54.9084C14.9215 53.1122 18.2739 53.1122 20.286 54.9084C22.2982 53.1122 25.6525 53.1122 27.6646 54.9084C29.675 53.1122 33.0292 53.1122 35.0414 54.9084C36.0559 54.0011 37.3687 53.4985 38.7297 53.4961V53.4961ZM35.5823 9.22277C37.3175 9.22277 38.7297 10.635 38.7297 12.3684V46.6621C38.7297 48.3974 37.3194 49.8078 35.5823 49.8078H12.3684C10.6331 49.8078 9.22093 48.3956 9.22093 46.6621V12.3684C9.22093 10.6331 10.6313 9.22277 12.3684 9.22277H35.5823ZM35.0414 46.1176V42.8888C35.0414 40.9634 30.8306 38.2775 23.9763 38.2775C17.1201 38.2775 12.9093 40.9634 12.9093 42.8888V46.1176H35.0414ZM35.0414 12.913H12.9093V37.2954C15.5713 35.6192 19.4719 34.5891 23.9763 34.5891C28.4806 34.5891 32.3794 35.6192 35.0414 37.2954V12.913V12.913ZM23.9763 31.3604C22.0198 31.3589 20.1439 30.5811 18.7604 29.1976C17.377 27.8142 16.5991 25.9383 16.5977 23.9818C16.5991 22.0253 17.377 20.1494 18.7604 18.766C20.1439 17.3825 22.0198 16.6047 23.9763 16.6032C25.9324 16.6052 27.8079 17.3832 29.1909 18.7666C30.5739 20.15 31.3515 22.0256 31.353 23.9818C31.3515 25.9379 30.5739 27.8136 29.1909 29.197C27.8079 30.5804 25.9324 31.3584 23.9763 31.3604Z" fill="black"/>
</svg>

<svg width="48" height="60" viewBox="0 0 48 60" fill="none" xmlns="http://www.w3.org/2000/svg"><path fill-rule="evenodd" clip-rule="evenodd" d="M23.976 20.292a3.692 3.692 0 013.689 3.69 3.692 3.692 0 01-3.689 3.688 3.692 3.692 0 01-3.69-3.688 3.692 3.692 0 013.69-3.69zm24.02-1.848a2.703 2.703 0 01-1.125 2.198 1.832 1.832 0 00-.765 1.496c0 .594.277 1.139.761 1.493a2.696 2.696 0 01.004 4.39 1.832 1.832 0 00-.765 1.495c0 .595.277 1.14.761 1.494a2.696 2.696 0 01.004 4.39 1.832 1.832 0 00-.765 1.495c0 .594.277 1.139.761 1.495a2.694 2.694 0 01.004 4.388 1.831 1.831 0 00-.765 1.495c0 .597.277 1.14.761 1.496a2.694 2.694 0 01.004 4.388 1.845 1.845 0 001.08 3.34v5.534h-7.377a1.846 1.846 0 00-3.334-1.09 2.704 2.704 0 01-4.397.002c-.707-.963-2.276-.962-2.982 0-1.052 1.436-3.345 1.435-4.395 0-.707-.963-2.276-.962-2.981 0-1.053 1.436-3.345 1.435-4.396 0-.707-.963-2.276-.962-2.981 0-1.052 1.436-3.345 1.435-4.397 0a1.846 1.846 0 00-3.334 1.088H0v-5.535a1.845 1.845 0 001.119-3.312A2.773 2.773 0 01.03 47.962c0-.88.395-1.691 1.086-2.221a1.835 1.835 0 00.727-1.468 1.833 1.833 0 00-.725-1.467A2.773 2.773 0 01.03 40.583c0-.88.395-1.69 1.086-2.22a1.835 1.835 0 00.727-1.468 1.833 1.833 0 00-.725-1.468A2.773 2.773 0 01.03 33.205c0-.883.395-1.691 1.086-2.221a1.836 1.836 0 00.727-1.468 1.833 1.833 0 00-.725-1.467A2.773 2.773 0 01.03 25.826c0-.882.395-1.691 1.086-2.22a1.835 1.835 0 00.729-1.472 1.833 1.833 0 00-.725-1.466 2.773 2.773 0 01-1.088-2.223 2.77 2.77 0 011.086-2.22 1.836 1.836 0 00.727-1.47 1.833 1.833 0 00-.725-1.465 2.773 2.773 0 01-1.088-2.223 2.769 2.769 0 011.086-2.22A1.846 1.846 0 000 5.533V0h7.377a1.846 1.846 0 003.334 1.09c1.008-1.378 3.389-1.382 4.399.003.701.952 2.27.956 2.98-.004 1.005-1.377 3.387-1.38 4.396.004.702.952 2.273.956 2.98-.004 1.006-1.377 3.387-1.38 4.397.004.702.952 2.273.956 2.98-.004 1.006-1.377 3.387-1.38 4.399.004A1.846 1.846 0 0040.574 0h7.377v5.534a1.846 1.846 0 00-1.084 3.34 2.696 2.696 0 01.004 4.39 1.832 1.832 0 00-.765 1.495c0 .594.277 1.139.761 1.494a2.695 2.695 0 011.13 2.19zM38.73 53.496c1.628 0 3.079.72 4.094 1.846h1.006a5.51 5.51 0 01-1.412-3.692c0-1.366.513-2.682 1.41-3.688a5.555 5.555 0 01-1.41-3.689c0-1.37.513-2.684 1.41-3.69a5.555 5.555 0 01-1.41-3.688c0-1.37.513-2.684 1.41-3.69a5.555 5.555 0 01-1.41-3.689c0-1.37.513-2.684 1.41-3.692a5.555 5.555 0 01-1.41-3.688c0-1.368.513-2.684 1.41-3.689a5.555 5.555 0 01-1.41-3.69c0-1.368.513-2.684 1.41-3.688a5.555 5.555 0 01-1.41-3.69c0-1.416.535-2.71 1.412-3.689h-1.006a5.51 5.51 0 01-4.094 1.844 5.547 5.547 0 01-3.689-1.412c-2.015 1.798-5.366 1.795-7.376 0-2.016 1.798-5.367 1.795-7.379 0-2.016 1.798-5.366 1.795-7.377 0a5.555 5.555 0 01-3.688 1.412c-1.628 0-3.08-.72-4.095-1.846H4.093a5.5 5.5 0 01.035 7.38 5.493 5.493 0 011.405 3.69 5.505 5.505 0 01-1.405 3.69 5.493 5.493 0 011.405 3.688 5.505 5.505 0 01-1.405 3.69 5.498 5.498 0 011.405 3.69 5.501 5.501 0 01-1.405 3.689 5.498 5.498 0 011.405 3.69 5.497 5.497 0 01-1.405 3.688 5.498 5.498 0 011.405 3.69 5.496 5.496 0 01-1.405 3.689 5.492 5.492 0 01-.034 7.378h1.034a5.502 5.502 0 014.093-1.844c1.368 0 2.684.513 3.688 1.412 2.012-1.796 5.365-1.796 7.377 0 2.012-1.796 5.366-1.796 7.379 0 2.01-1.796 5.364-1.796 7.376 0a5.548 5.548 0 013.689-1.412zM35.582 9.223a3.151 3.151 0 013.148 3.145v34.294a3.149 3.149 0 01-3.148 3.146H12.368a3.151 3.151 0 01-3.147-3.146V12.368a3.149 3.149 0 013.147-3.145h23.214zm-.54 36.895v-3.23c0-1.925-4.211-4.61-11.066-4.61-6.856 0-11.067 2.685-11.067 4.61v3.23h22.132zm0-33.205H12.908v24.382c2.662-1.676 6.563-2.706 11.067-2.706 4.505 0 8.403 1.03 11.065 2.706V12.913zM23.975 31.36a7.384 7.384 0 01-7.378-7.378 7.384 7.384 0 017.378-7.379 7.384 7.384 0 017.377 7.379 7.385 7.385 0 01-7.377 7.378z" fill="#000"/></svg>
